hero/solid/arrow-down-right.svg

<svg width="24" height="24" viewBox="0 0 24 24" fill="none" xmlns="http://www.w3.org/2000/svg">
<path fill-rule="evenodd" clip-rule="evenodd" d="M3.96967 3.96967C4.26256 3.67678 4.73744 3.67678 5.03033 3.96967L18.75 17.6893V8.25C18.75 7.83579 19.0858 7.5 19.5 7.5C19.9142 7.5 20.25 7.83579 20.25 8.25V19.5C20.25 19.9142 19.9142 20.25 19.5 20.25H8.25C7.83579 20.25 7.5 19.9142 7.5 19.5C7.5 19.0858 7.83579 18.75 8.25 18.75H17.6893L3.96967 5.03033C3.67678 4.73744 3.67678 4.26256 3.96967 3.96967Z" fill="#0F172A"/>
</svg>

<svg viewBox="0 0 24 24" xmlns="http://www.w3.org/2000/svg"><path fill-rule="evenodd" d="M3.97 3.97v0c.29-.3.76-.3 1.06-.001l13.72 13.72v-9.44 0c0-.42.33-.75.75-.75 .41 0 .75.33.75.75v11.25 0c0 .41-.34.75-.75.75H8.25v0c-.42 0-.75-.34-.75-.75 0-.42.33-.75.75-.75h9.44L3.97 5.02V5.02c-.3-.3-.3-.77 0-1.06Z"/></svg>
